Newaita-dark/.DP/32/skype-indicator.svg

<svg xmlns="http://www.w3.org/2000/svg" xmlns:xlink="http://www.w3.org/1999/xlink" width="32px" height="32px" viewBox="0 0 32 32" version="1.1">
<g id="surface1">
<path style=" stroke:none;fill-rule:nonzero;fill:rgb(93.333334%,93.333334%,93.333334%);fill-opacity:1;" d="M 10.726562 4.199219 C 7.59375 4.199219 5.070312 6.722656 5.070312 9.855469 C 5.070312 10.804688 5.300781 11.695312 5.707031 12.480469 C 5.296875 13.621094 5.070312 14.855469 5.070312 16.140625 C 5.070312 22.058594 9.835938 26.824219 15.753906 26.824219 C 16.214844 26.824219 16.667969 26.796875 17.117188 26.738281 C 18.101562 27.578125 19.378906 28.082031 20.78125 28.082031 C 23.917969 28.082031 26.441406 25.558594 26.441406 22.425781 C 26.441406 21.480469 26.207031 20.585938 25.800781 19.804688 C 26.214844 18.660156 26.441406 17.429688 26.441406 16.140625 C 26.441406 10.222656 21.675781 5.457031 15.753906 5.457031 C 15.292969 5.457031 14.839844 5.488281 14.394531 5.542969 C 13.40625 4.703125 12.128906 4.199219 10.726562 4.199219 Z M 18.523438 10.285156 L 19.847656 10.285156 C 19.855469 10.285156 19.867188 10.285156 19.878906 10.289062 C 19.890625 10.289062 19.902344 10.289062 19.910156 10.292969 C 19.914062 10.292969 19.917969 10.292969 19.917969 10.292969 C 19.925781 10.292969 19.933594 10.292969 19.941406 10.292969 C 19.945312 10.292969 19.949219 10.292969 19.949219 10.292969 C 19.957031 10.296875 19.96875 10.300781 19.980469 10.300781 C 19.988281 10.300781 20 10.304688 20.007812 10.308594 C 20.011719 10.308594 20.011719 10.308594 20.015625 10.308594 C 20.023438 10.3125 20.03125 10.3125 20.035156 10.316406 C 20.039062 10.316406 20.042969 10.316406 20.046875 10.316406 C 20.054688 10.320312 20.066406 10.324219 20.074219 10.328125 C 20.09375 10.332031 20.113281 10.34375 20.132812 10.351562 C 20.144531 10.355469 20.152344 10.363281 20.160156 10.367188 C 20.171875 10.371094 20.179688 10.378906 20.191406 10.382812 C 20.199219 10.386719 20.210938 10.394531 20.21875 10.402344 C 20.222656 10.402344 20.226562 10.40625 20.230469 10.410156 C 20.234375 10.414062 20.242188 10.417969 20.25 10.425781 C 20.253906 10.425781 20.253906 10.429688 20.261719 10.433594 C 20.265625 10.4375 20.273438 10.441406 20.277344 10.449219 C 20.28125 10.449219 20.285156 10.453125 20.285156 10.457031 C 20.296875 10.464844 20.304688 10.472656 20.316406 10.480469 C 20.320312 10.488281 20.328125 10.496094 20.335938 10.503906 C 20.34375 10.511719 20.347656 10.519531 20.355469 10.527344 C 20.363281 10.535156 20.371094 10.542969 20.375 10.550781 C 20.386719 10.570312 20.402344 10.585938 20.410156 10.605469 C 20.417969 10.613281 20.421875 10.621094 20.425781 10.632812 C 20.429688 10.636719 20.429688 10.640625 20.433594 10.644531 C 20.441406 10.65625 20.445312 10.667969 20.449219 10.679688 C 20.449219 10.683594 20.449219 10.683594 20.449219 10.683594 C 20.453125 10.683594 20.453125 10.6875 20.457031 10.691406 C 20.457031 10.699219 20.464844 10.710938 20.464844 10.722656 C 20.472656 10.742188 20.480469 10.761719 20.488281 10.785156 C 20.488281 10.792969 20.492188 10.804688 20.496094 10.816406 C 20.496094 10.824219 20.496094 10.835938 20.5 10.847656 C 20.5 10.859375 20.503906 10.871094 20.503906 10.878906 C 20.503906 10.882812 20.503906 10.882812 20.503906 10.882812 C 20.503906 10.894531 20.503906 10.902344 20.503906 10.917969 C 20.507812 10.925781 20.507812 10.9375 20.507812 10.949219 L 20.507812 12.269531 C 20.507812 12.636719 20.210938 12.933594 19.847656 12.933594 L 19.183594 12.933594 C 18.816406 12.933594 18.523438 12.636719 18.523438 12.269531 L 13.894531 12.269531 C 13.527344 12.269531 13.230469 12.566406 13.230469 12.933594 L 13.230469 14.253906 C 13.230469 14.621094 13.527344 14.917969 13.894531 14.917969 L 19.847656 14.917969 C 20.210938 14.917969 20.507812 15.214844 20.507812 15.578125 L 20.507812 20.871094 C 20.507812 21.238281 20.210938 21.535156 19.847656 21.535156 L 11.90625 21.535156 C 11.886719 21.535156 11.863281 21.53125 11.839844 21.527344 C 11.828125 21.527344 11.816406 21.527344 11.808594 21.527344 C 11.792969 21.523438 11.78125 21.519531 11.769531 21.519531 C 11.765625 21.519531 11.761719 21.519531 11.757812 21.515625 C 11.75 21.511719 11.738281 21.511719 11.730469 21.511719 C 11.730469 21.507812 11.722656 21.507812 11.71875 21.503906 C 11.710938 21.503906 11.703125 21.5 11.695312 21.496094 C 11.691406 21.496094 11.6875 21.496094 11.683594 21.496094 C 11.671875 21.488281 11.660156 21.488281 11.648438 21.480469 C 11.640625 21.476562 11.628906 21.472656 11.621094 21.46875 C 11.589844 21.453125 11.5625 21.4375 11.535156 21.417969 C 11.527344 21.414062 11.519531 21.40625 11.507812 21.398438 C 11.503906 21.394531 11.503906 21.394531 11.496094 21.394531 C 11.492188 21.386719 11.484375 21.382812 11.480469 21.375 C 11.476562 21.371094 11.472656 21.371094 11.46875 21.367188 C 11.464844 21.363281 11.457031 21.355469 11.449219 21.351562 C 11.449219 21.347656 11.445312 21.347656 11.441406 21.34375 C 11.433594 21.332031 11.425781 21.324219 11.417969 21.316406 C 11.394531 21.292969 11.378906 21.269531 11.359375 21.242188 C 11.351562 21.234375 11.347656 21.222656 11.339844 21.214844 C 11.332031 21.199219 11.320312 21.175781 11.308594 21.160156 C 11.308594 21.160156 11.308594 21.160156 11.308594 21.15625 C 11.308594 21.148438 11.300781 21.140625 11.300781 21.132812 C 11.296875 21.128906 11.296875 21.128906 11.292969 21.121094 C 11.292969 21.117188 11.292969 21.113281 11.289062 21.105469 C 11.285156 21.101562 11.285156 21.097656 11.285156 21.097656 C 11.28125 21.085938 11.277344 21.078125 11.277344 21.066406 C 11.273438 21.058594 11.269531 21.050781 11.269531 21.039062 C 11.265625 21.035156 11.265625 21.035156 11.265625 21.03125 C 11.261719 21.027344 11.261719 21.019531 11.261719 21.011719 C 11.261719 21.007812 11.261719 21.003906 11.257812 21.003906 C 11.257812 20.992188 11.253906 20.984375 11.253906 20.972656 C 11.253906 20.964844 11.25 20.953125 11.25 20.941406 C 11.25 20.941406 11.25 20.9375 11.25 20.933594 C 11.246094 20.925781 11.246094 20.917969 11.246094 20.910156 C 11.246094 20.910156 11.246094 20.90625 11.246094 20.902344 C 11.246094 20.894531 11.246094 20.882812 11.246094 20.871094 L 11.246094 19.550781 C 11.246094 19.183594 11.542969 18.886719 11.90625 18.886719 L 12.566406 18.886719 C 12.933594 18.886719 13.230469 19.183594 13.230469 19.550781 L 17.863281 19.550781 C 18.226562 19.550781 18.523438 19.253906 18.523438 18.886719 L 18.523438 17.566406 C 18.523438 17.199219 18.226562 16.902344 17.863281 16.902344 L 11.90625 16.902344 C 11.542969 16.902344 11.246094 16.605469 11.246094 16.242188 L 11.246094 10.949219 C 11.246094 10.582031 11.542969 10.285156 11.90625 10.285156 Z M 18.523438 10.285156 "/>
</g>
</svg>

<svg xmlns="http://www.w3.org/2000/svg" width="32pt" height="32pt" viewBox="0 0 32 32"><path d="M10.727 4.2A5.645 5.645 0 0 0 5.07 9.854c0 .95.23 1.84.64 2.625a10.713 10.713 0 0 0-.64 3.66 10.661 10.661 0 0 0 10.684 10.684c.46 0 .918-.027 1.363-.082a5.643 5.643 0 0 0 3.664 1.34 5.642 5.642 0 0 0 5.657-5.656c0-.95-.231-1.84-.637-2.621.414-1.14.637-2.375.637-3.664A10.661 10.661 0 0 0 15.754 5.457c-.461 0-.914.027-1.363.086a5.618 5.618 0 0 0-3.664-1.344zm7.796 6.09h1.387c.004 0 .004 0 .008.003h.023c.004 0 .004.004.008.004.012 0 .02 0 .031.004.008 0 .02.004.028.008h.008c.007.004.015.004.023.007h.008c.008.004.015.008.027.012l.059.024c.008.003.02.011.027.015.012.004.02.012.027.016.012.008.024.012.032.02.004.003.008.003.008.007a.082.082 0 0 1 .023.016c.004 0 .008.004.008.008.008.004.015.007.02.015.003 0 .007.004.011.008l.023.023.024.024c.008.008.016.016.02.023a.104.104 0 0 1 .019.024c.016.02.027.035.035.054.008.008.012.02.016.028.004.004.004.008.008.012.003.011.011.023.015.035h.004c0 .004 0 .008.004.011l.012.032c.004.02.011.039.02.058 0 .012.003.024.003.035.004.008.004.02.008.032 0 .011.004.023.004.035 0 .012 0 .023.004.031v1.359c0 .364-.297.66-.664.66h-.66a.66.66 0 0 1-.66-.66H13.89a.66.66 0 0 0-.66.66v1.325c0 .363.296.66.66.66h5.953c.367 0 .664.297.664.66v5.293a.66.66 0 0 1-.664.66H11.84c-.012-.004-.024-.004-.035-.004-.012-.004-.024-.007-.035-.007-.004 0-.008-.004-.012-.004-.008 0-.016-.004-.028-.008h-.011a.056.056 0 0 0-.024-.008c-.004-.004-.008-.004-.011-.004-.012-.004-.024-.012-.036-.016-.007-.003-.02-.007-.027-.011l-.086-.047c-.008-.008-.02-.016-.027-.024a.008.008 0 0 1-.008-.007c-.008-.004-.016-.008-.02-.016-.003 0-.007-.004-.011-.008a.085.085 0 0 0-.02-.015.008.008 0 0 0-.008-.008c-.007-.008-.015-.02-.023-.028a.35.35 0 0 1-.059-.074c-.007-.008-.011-.02-.02-.027-.007-.02-.019-.035-.027-.055l-.003-.004c-.004-.008-.008-.015-.008-.023-.004-.004-.004-.008-.004-.012-.004-.004-.008-.008-.008-.016-.004-.003-.004-.007-.004-.007-.004-.012-.008-.02-.008-.028l-.004-.004c0-.007-.003-.015-.007-.027v-.008c-.004-.008-.004-.011-.004-.02 0-.003-.004-.007-.004-.007 0-.012-.004-.02-.004-.031-.004-.012-.004-.02-.004-.032v-.007c0-.008-.004-.016-.004-.024v-.008-1.355a.66.66 0 0 1 .66-.66h.664c.364 0 .66.297.66.66h4.63a.66.66 0 0 0 .663-.66v-1.325a.663.663 0 0 0-.664-.66h-5.953a.657.657 0 0 1-.66-.66V10.95c0-.367.293-.66.66-.66zm0 0" fill="#bdbdbd"/></svg>
